X:860
M:C|
L:1/8
K:C
E|C2E2 cGEG|FDD^c dfed|cGEG cdec|Aagf ec ~cE|C2E2 cGEG|
fagf eccf|ecgc acge|fede fgac|AcBd cedf|eag>f ecc||

